X: 1525
T: Nâ Ümmîd-i Aşka
C: Şekerci Cemil Bey
O: Turkey
F: http://compmusic.upf.edu/node/140
N: ussak--sarki--agiraksak--na-umid-i--sekerci_cemil_bey
N: makam= ussak
N: form= sarki
N: usul= agiraksak = 9/4
M: 9/4
L: 1/16
K: C _2/4B   
Q: 1/4=72
%%MIDI tuningsystem comma53
z2fe f2g2 z2ed e2f2 z2dc d2e2 c2d2 c2B2 A2G2  | 
w:   | 
A3B c2d2 e2fg fed2 efed c2e2 d4 GABc d4  | 
w:   | 
z2fe f2g2 z2ed e2f2 z2dc d2e2 c2d2 c2B2 A2G2  | 
w:   | 
A3B c2d2 e2fg fed2 c3B cBBA A3B c2d2 e2g2  | 
w:   | 
z2fe f2g2 z2ed e2f2 z2dc d2e2 c2d2 c2B2 A2G2  | 
w:   | 
A3B c2d2 e2fg fed2 efed c2e2 d4 GABc d4  | 
w:   | 
z2fe f2g2 z2ed e2f2 z2dc d2e2 c2d2 c2B2 A2G2  | 
w:   | 
A3B c2d2 e2fg fed2 c3B cBBA A3f edcB A4  | 
w:   | 
z8 z2G4A2 A6c2 B2c2 A2B2 G4  | c2BA B2c2 d2e2 d2c2 c3B cBBA A6G2 c2BA  | 
w:  Nâ  üm mîd_ *  i   |  *  *  *  *  *  *  aş *  ka  dok *  *  *  *  *  tor   | 
A8 z2f2 e2d2 d2c2 B2A2 A3B c2d2 e2f2  | \
w:  *  var  *  mı  tıb *  *  *  bın   | 
agfe d4 z2f2 e2d2 c2d2 e2{f}ed d6ef eddc  | 
w:  *  *  *  *  *  ça *  *  *  *  *  *  re *  si   SAZ  | 
d8 z2f2 e2d2 c2{d}cB A4 e4 f4 e2f2  | \
w:  *  Ney *  le  â *  *  *  *  râm   | 
g2{_b}ag fed4d4e2 d2c4d2 {e}dcBA B2c2 B2e2  | 
w:  *  *  *  *  *  *  *  ey ler_ uş *  *  *  şâ  | 
d3e dcBA B2A4B2 c2d2 c2B2 c2{d}cB A8  | \
w:  *  *  *  *  *  *  *  kın  dil_ i  *  *  *  â  | 
d2cd e2dc c2Bc d2cB B2AB c2BA A6ef eddc  | 
w:  vâ *  *  *  *  *  *  *  *  *  *  *  *  *  *  *  re *  si   SAZ  | 
d8 z2f2 e2d2 c2{d}cB A4 e4 f4 e2f2  | \
w:  *  Ney *  le  â *  *  *  *  râm   | 
g2{_b}ag fed4d4e2 d2c4d2 {e}dcBA B2c2 B2e2  | 
w:  *  *  *  *  *  *  *  ey ler_ uş *  *  *  şâ  | 
d3e dcBA B2A4B2 c2d2 c2B2 c2{d}cB A8  | \
w:  *  *  *  *  *  *  *  kın  dil_ i  *  *  *  â  | 
d2cd e2dc c2Bc d2cB B2AB c2BA A6ef edcd  | 
w:  vâ *  *  *  *  *  *  *  *  *  *  *  *  *  *  *  re *  si   SAZ  | 
e8 z2d4e2 e8 e2{f}ed d8  | e2dc c4 z2c4c2 =B2c2 d2{e}dc c6g2 ^3/4f2a2  | 
w:  *  Han çe rem den   |  *  *  *  *  çek  ce hen *  *  *  *  *  nem   | 
g8 z2a2 g2f2 f3e e2d2 e2d2 c2B2 A4  | \
w:  *  ta *  şı nı  *  *  *  bey  | 
A2f4fe e3d d2{f}ed d8 e2fg fed2 e2d2  | 
w:  *  hû *  *  *  *  *  *  de *  dir   SAZ  | 
d8 z2f2 e2d2 c2{d}cB A4 e4 f4 e2f2  | \
w:  *  Ney *  le  â *  *  *  *  râm   | 
g2{_b}ag fed4d4e2 d2c4d2 {e}dcBA B2c2 B2e2  | 
w:  *  *  *  *  *  *  *  ey ler_ uş *  *  *  şâ  | 
d3e dcBA B2A4B2 c2d2 c2B2 c2{d}cB A8  | \
w:  *  *  *  *  *  *  *  kın  dil_ i  *  *  *  â  | 
d2cd e2dc c2Bc d2cB B2AB c2BA A6ef eddc  | 
w:  vâ *  *  *  *  *  *  *  *  *  *  *  *  *  *  *  re *  si   SAZ  | 
d8 z2f2 e2d2 c2{d}cB A4 e4 f4 e2f2  | \
w:  *  Ney *  le  â *  *  *  *  râm   | 
g2{_b}ag fed4d4e2 d2c4d2 {e}dcBA B2c2 B2e2  | 
w:  *  *  *  *  *  *  *  ey ler_ uş *  *  *  şâ  | 
d3e dcBA B2A4B2 c2d2 c2B2 c2{d}cB A8  | \
w:  *  *  *  *  *  *  *  kın  dil_ i  *  *  *  â  | 
d2cd e2dc c2Bc d2cB B2AB c2BA A3f edcB A4  | 
w:  yâ KARAR *  *  *  *  *  *  *  *  *  *  *  *  *  *  re *  si   SAZ  | 
|


